cypex/img/main/caseStudies__step5.svg

<svg width="80" height="80" fill="none" xmlns="http://www.w3.org/2000/svg"><rect width="80" height="80" rx="24" fill="url(#a)"/><path d="m40 18-18 8v12c0 11.1 7.68 21.48 18 24 10.32-2.52 18-12.9 18-24V26l-18-8Zm14 20c0 3.7-1.02 7.3-2.76 10.42l-2.9-2.9c2.58-3.88 2.14-9.16-1.28-12.58-3.9-3.9-10.24-3.9-14.14 0-3.9 3.9-3.9 10.24 0 14.14 3.42 3.42 8.7 3.84 12.58 1.28l3.44 3.44c-2.38 2.84-5.46 5.02-8.94 6.08-8.04-2.5-14-10.84-14-19.88v-9.4l14-6.22 14 6.22V38Zm-14 8c-3.32 0-6-2.68-6-6s2.68-6 6-6 6 2.68 6 6-2.68 6-6 6Z" fill="#0D0D0D"/><defs><linearGradient id="a" x1="80" y1="67.692" x2="-4.167" y2="62.039" gradientUnits="userSpaceOnUse"><stop stop-color="#E5FF5D"/><stop offset="1" stop-color="#5DFFFF"/></linearGradient></defs></svg>

<svg width="80" height="80" viewBox="0 0 80 80" fill="none" xmlns="http://www.w3.org/2000/svg">
<rect width="80" height="80" rx="24" fill="url(#paint0_linear_153_6414)"/>
<path d="M40 18L22 26V38C22 49.1 29.68 59.48 40 62C50.32 59.48 58 49.1 58 38V26L40 18ZM54 38C54 41.7 52.98 45.3 51.24 48.42L48.34 45.52C50.92 41.64 50.48 36.36 47.06 32.94C43.16 29.04 36.82 29.04 32.92 32.94C29.02 36.84 29.02 43.18 32.92 47.08C36.34 50.5 41.62 50.92 45.5 48.36L48.94 51.8C46.56 54.64 43.48 56.82 40 57.88C31.96 55.38 26 47.04 26 38V28.6L40 22.38L54 28.6V38ZM40 46C36.68 46 34 43.32 34 40C34 36.68 36.68 34 40 34C43.32 34 46 36.68 46 40C46 43.32 43.32 46 40 46Z" fill="#0D0D0D"/>
<defs>
<linearGradient id="paint0_linear_153_6414" x1="80" y1="67.6923" x2="-4.16728" y2="62.0386" gradientUnits="userSpaceOnUse">
<stop stop-color="#E5FF5D"/>
<stop offset="1" stop-color="#5DFFFF"/>
</linearGradient>
</defs>
</svg>
